assets/White circle/Flat/white_circle_flat.svg

<svg width="32" height="32" viewBox="0 0 32 32" fill="none" xmlns="http://www.w3.org/2000/svg">
<path d="M16.0555 1.5C8.04741 1.5 1.55554 7.99187 1.55554 16C1.55554 24.0081 8.04741 30.5 16.0555 30.5C24.0637 30.5 30.5555 24.0081 30.5555 16C30.5555 7.99187 24.0637 1.5 16.0555 1.5Z" fill="#9B9B9B"/>
<path d="M2.55554 16C2.55554 8.54416 8.5997 2.5 16.0555 2.5C23.5114 2.5 29.5555 8.54416 29.5555 16C29.5555 23.4558 23.5114 29.5 16.0555 29.5C8.5997 29.5 2.55554 23.4558 2.55554 16Z" fill="white"/>
</svg>

<svg xmlns="http://www.w3.org/2000/svg" width="32" height="32" fill="none"><path fill="#9B9B9B" d="M16.055 1.5c-8.008 0-14.5 6.492-14.5 14.5s6.492 14.5 14.5 14.5c8.009 0 14.5-6.492 14.5-14.5s-6.491-14.5-14.5-14.5Z"/><path fill="#fff" d="M2.556 16c0-7.456 6.044-13.5 13.5-13.5 7.455 0 13.5 6.044 13.5 13.5s-6.045 13.5-13.5 13.5c-7.456 0-13.5-6.044-13.5-13.5Z"/></svg>
